Newaita-dark/apps/32/d-feet.svg

<svg height="32" viewBox="0 0 32 32" width="32" xmlns="http://www.w3.org/2000/svg" xmlns:xlink="http://www.w3.org/1999/xlink"><linearGradient id="a"><stop offset="0" stop-opacity=".313726"/><stop offset=".222222" stop-opacity=".27451"/><stop offset="1" stop-opacity="0"/></linearGradient><radialGradient id="b" cx="450.908936" cy="189.579361" gradientTransform="matrix(-.00000017 -.0781325 .140638 -.0000001 -19.933024 63.595332)" gradientUnits="userSpaceOnUse" r="21.166656" xlink:href="#a"/><radialGradient id="c" cx="450.908936" cy="189.579361" gradientTransform="matrix(.00000017 .0781325 -.140638 .0000001 33.060354 -7.52748)" gradientUnits="userSpaceOnUse" r="21.166656" xlink:href="#a"/><radialGradient id="d" cx="450.908936" cy="189.579361" gradientTransform="matrix(.00000017 -.0781325 -.140638 -.0000001 33.060354 63.595332)" gradientUnits="userSpaceOnUse" r="21.166656" xlink:href="#a"/><radialGradient id="e" cx="450.908936" cy="189.579361" gradientTransform="matrix(-.00000017 .0781325 .140638 .0000001 -19.933022 -7.52748)" gradientUnits="userSpaceOnUse" r="21.166656" xlink:href="#a"/><linearGradient id="f" gradientTransform="matrix(-.0133601 0 0 .062506 13.943924 13.438786)" gradientUnits="userSpaceOnUse" x1="255.323059" x2="255.323044" y1="233.5" y2="254.666656"><stop offset="0" stop-opacity=".27451"/><stop offset="1" stop-opacity="0"/></linearGradient><linearGradient id="g" gradientTransform="matrix(-.0441984 -.0441984 -.0405152 .0405152 27.890189 29.863773)" gradientUnits="userSpaceOnUse" x1="192.736588" x2="477.111359" y1="165.093643" y2="-145.133408"><stop offset="0" stop-color="#424242"/><stop offset="1" stop-color="#616161"/></linearGradient><linearGradient id="h" gradientTransform="matrix(-.0441984 -.0441984 -.0441984 .0441984 28.048764 29.488788)" gradientUnits="userSpaceOnUse" x1="257.64035" x2="354.926453" y1="224.72374" y2="127.43763"><stop offset="0" stop-color="#5c6bc0"/><stop offset="1" stop-color="#7986cb"/></linearGradient><g fill="#020202" fill-opacity=".588235"><path d="m18.523438 6.867188c-1.246094-1.246094-3.707032-.789063-5.523438 1.027343-1.324219 1.324219-2.179688 2.824219-2.441406 4.105469l3.003906 3 .011719.011719c1.277343-.261719 2.78125-1.117188 4.105469-2.441407 1.8125-1.8125 2.273437-4.277343 1.027343-5.519531zm0 0"/><path d="m9.726562 13.039062-.339843.339844c.070312 1.46875.484375 2.847656 1.160156 4.058594.304687-.054688.589844-.195312.816406-.421875l1.171875-1.171875zm0 0"/><path d="m25.421875 6.597656c-.636719.292969-1.269531.726563-1.835937 1.296875-1.324219 1.324219-2.179688 2.824219-2.441407 4.105469l3 3c.003907.003906.007813.007812.011719.011719 1.164062-.238281 2.511719-.964844 3.742188-2.089844 0-.003906 0-.007813 0-.007813 0-2.445312-.9375-4.664062-2.476563-6.316406zm0 0"/><path d="m20.3125 13.039062-1.171875 1.167969c-.644531.648438-.582031 1.757813.148437 2.488281l.175782.171876c.726562.730468 1.835937.796874 2.484375.148437l1.167969-1.171875zm0 0"/></g><path d="m18.636719 3.652344c-5.117188 0-9.261719 4.144531-9.261719 9.261718 0 5.113282 4.144531 9.257813 9.261719 9.257813 5.113281 0 9.261719-4.144531 9.261719-9.257813 0-5.117187-4.148438-9.261718-9.261719-9.261718zm0 0" fill="#c5cae9" fill-opacity=".392157"/><path d="m6.398438 28.035156h-2.644532v-1.324218h2.644532zm0 0" fill="url(#b)"/><path d="m6.730469 28.035156h2.644531v1.320313h-2.644531zm0 0" fill="url(#c)"/><path d="m6.730469 28.035156h2.644531v-1.324218h-2.644531zm0 0" fill="url(#d)"/><path d="m6.398438 28.035156h-2.644532v1.320313h2.644532zm0 0" fill="url(#e)"/><path d="m6.730469 28.035156h-.332031v1.320313h.332031zm0 0" fill="url(#f)"/><path d="m18.636719 2.894531c5.496093 0 9.921875 4.425781 9.921875 9.925781 0 5.496094-4.425782 9.921876-9.921875 9.921876-2.300781 0-4.410157-.773438-6.089844-2.078126l-1.367187 1.371094-1.871094-1.871094 1.382812-1.382812c-1.242187-1.660156-1.976562-3.722656-1.976562-5.960938 0-5.5 4.425781-9.925781 9.921875-9.925781zm-.007813 1.984375c-4.402344 0-7.949218 3.542969-7.949218 7.941406 0 4.394532 3.546874 7.9375 7.949218 7.9375s7.945313-3.542968 7.945313-7.9375c0-4.398437-3.542969-7.941406-7.945313-7.941406zm0 0" fill="url(#g)"/><path d="m11.179688 22.035156-1.871094-1.871094c-.515625-.519531-1.355469-.519531-1.871094 0l-3.742188 3.742188c-.515624.515625-.515624 1.351562 0 1.871094l1.871094 1.871094c.515625.515624 1.355469.515624 1.871094 0l3.742188-3.742188c.515624-.519531.515624-1.355469 0-1.871094zm0 0" fill="url(#h)"/><path d="m18.636719 2.894531c5.496093 0 9.921875 4.425781 9.921875 9.925781v.164063c-.089844-5.421875-4.480469-9.757813-9.921875-9.757813-5.441407 0-9.835938 4.339844-9.921875 9.757813 0-.054687 0-.109375 0-.164063 0-5.5 4.425781-9.925781 9.921875-9.925781zm7.9375 10.089844v.164063c0 4.398437-3.542969 7.941406-7.945313 7.941406s-7.949218-3.542969-7.949218-7.941406c0-.054688 0-.109376.003906-.164063.085937 4.320313 3.597656 7.773437 7.945312 7.773437s7.855469-3.453124 7.945313-7.773437zm-16.023438 5.933594c.046875.066406.09375.128906.140625.191406l-1.21875 1.21875-.164062-.164063zm0 0" fill="#fff" fill-opacity=".392157"/><path d="m18.628906 4.640625c4.402344 0 7.945313 3.542969 7.945313 7.9375v.121094c-.0625-4.34375-3.582031-7.820313-7.945313-7.820313-4.363281 0-7.882812 3.476563-7.945312 7.820313-.003906-.039063-.003906-.078125-.003906-.121094 0-4.394531 3.546874-7.9375 7.949218-7.9375zm-9.914062 8.058594c.023437 2.195312.757812 4.210937 1.976562 5.839843l-.101562.101563c-1.179688-1.632813-1.875-3.644531-1.875-5.820313 0-.042968 0-.082031 0-.121093zm19.84375 0v.121093c0 5.496094-4.425782 9.921876-9.921875 9.921876-2.300781 0-4.410157-.773438-6.089844-2.078126l-1.367187 1.371094-1.871094-1.871094.121094-.121093 1.75 1.75 1.367187-1.367188c1.679687 1.304688 3.789063 2.078125 6.089844 2.078125 5.457031 0 9.859375-4.363281 9.921875-9.804687zm0 0" fill-opacity=".235294"/><path d="m18.636719 2.800781c5.546875 0 10.015625 4.46875 10.015625 10.019531 0 5.546876-4.46875 10.015626-10.015625 10.015626-2.289063 0-4.394531-.765626-6.078125-2.046876l-1.25 1.246094c-.019532-.023437-.039063-.046875-.0625-.066406l-.066406-.066406 1.300781-1.304688c.035156-.03125.085937-.035156.125-.007812 1.664062 1.292968 3.753906 2.058594 6.03125 2.058594 5.445312 0 9.828125-4.382813 9.828125-9.828126 0-5.449218-4.382813-9.832031-9.828125-9.832031-5.445313 0-9.828125 4.382813-9.828125 9.832031 0 2.21875.726562 4.261719 1.957031 5.902344.03125.039063.027344.089844-.007813.125l-1.316406 1.316406-.066406-.066406c-.023438-.023437-.046875-.042968-.070312-.066406l1.265624-1.261719c-1.226562-1.664062-1.949218-3.71875-1.949218-5.949219 0-5.550781 4.46875-10.019531 10.015625-10.019531zm-.007813 1.984375c4.453125 0 8.039063 3.585938 8.039063 8.035156 0 4.445313-3.585938 8.03125-8.039063 8.03125s-8.042968-3.585937-8.042968-8.03125c0-4.449218 3.589843-8.035156 8.042968-8.035156zm0 .1875c-4.355468 0-7.855468 3.5-7.855468 7.847656 0 4.347657 3.5 7.84375 7.855468 7.84375 4.351563 0 7.851563-3.496093 7.851563-7.84375 0-4.347656-3.5-7.847656-7.851563-7.847656zm0 0" fill="#212121"/><path d="m8.375 19.773438c.335938 0 .675781.128906.933594.390624l1.871094 1.871094c.296874.296875.421874.695313.378906 1.078125-.03125-.289062-.15625-.566406-.378906-.789062l-1.871094-1.871094c-.519532-.519531-1.351563-.519531-1.871094 0l-3.742188 3.742187c-.222656.222657-.347656.5-.378906.789063-.042968-.382813.082032-.78125.378906-1.078125l3.742188-3.742188c.257812-.261718.597656-.390624.9375-.390624zm0 0" fill="#fff" fill-opacity=".392157"/><path d="m6.503906 28.066406c-.339844 0-.679687-.128906-.9375-.390625l-1.871094-1.871093c-.296874-.292969-.421874-.695313-.378906-1.078126.03125.289063.15625.570313.378906.789063l1.871094 1.871094c.519532.519531 1.351563.519531 1.871094 0l3.742188-3.742188c.222656-.21875.347656-.5.378906-.789062.042968.382812-.082032.785156-.378906 1.078125l-3.742188 3.742187c-.257812.261719-.597656.390625-.933594.390625zm0 0" fill-opacity=".235294"/><path d="m11.246094 21.96875c.554687.554688.554687 1.449219 0 2.003906l-3.742188 3.742188c-.554687.550781-1.449218.550781-2.003906 0l-1.871094-1.871094c-.554687-.554688-.554687-1.449219 0-2.003906l3.742188-3.742188c.554687-.554687 1.449218-.554687 2.003906 0zm-.132813.132812-1.871093-1.871093c-.484376-.484375-1.253907-.484375-1.738282 0l-3.742187 3.742187c-.484375.480469-.484375 1.253906 0 1.738282l1.871093 1.871093c.484376.480469 1.253907.480469 1.738282 0l3.742187-3.742187c.484375-.484375.484375-1.257813 0-1.738282zm0 0" fill="#212121"/><path d="m23.816406 10.171875v.09375c0 4.03125-3.246094 7.277344-7.277344 7.277344-.738281 0-1.449218-.109375-2.121093-.3125 1.066406 1.015625 2.511719 1.636719 4.105469 1.636719 3.296874 0 5.953124-2.65625 5.953124-5.953126 0-.992187-.238281-1.921874-.660156-2.742187zm0 0" fill="#f5f5f5" fill-opacity=".392157"/></svg>

<?xml version="1.0" encoding="UTF-8"?>
<svg xmlns="http://www.w3.org/2000/svg" xmlns:xlink="http://www.w3.org/1999/xlink" width="32px" height="32px" viewBox="0 0 32 32" version="1.1">
<defs>
<radialGradient id="radial0" gradientUnits="userSpaceOnUse" cx="450.908936" cy="189.579361" fx="450.908936" fy="189.579361" r="21.166656" gradientTransform="matrix(-0.00000017417,-0.0781325,0.140638,-0.000000101539,-19.933024,63.595332)">
<stop offset="0" style="stop-color:rgb(0%,0%,0%);stop-opacity:0.313726;"/>
<stop offset="0.222222" style="stop-color:rgb(0%,0%,0%);stop-opacity:0.27451;"/>
<stop offset="1" style="stop-color:rgb(0%,0%,0%);stop-opacity:0;"/>
</radialGradient>
<radialGradient id="radial1" gradientUnits="userSpaceOnUse" cx="450.908936" cy="189.579361" fx="450.908936" fy="189.579361" r="21.166656" gradientTransform="matrix(0.00000017417,0.0781325,-0.140638,0.000000101539,33.060354,-7.52748)">
<stop offset="0" style="stop-color:rgb(0%,0%,0%);stop-opacity:0.313726;"/>
<stop offset="0.222222" style="stop-color:rgb(0%,0%,0%);stop-opacity:0.27451;"/>
<stop offset="1" style="stop-color:rgb(0%,0%,0%);stop-opacity:0;"/>
</radialGradient>
<radialGradient id="radial2" gradientUnits="userSpaceOnUse" cx="450.908936" cy="189.579361" fx="450.908936" fy="189.579361" r="21.166656" gradientTransform="matrix(0.00000017417,-0.0781325,-0.140638,-0.000000101539,33.060354,63.595332)">
<stop offset="0" style="stop-color:rgb(0%,0%,0%);stop-opacity:0.313726;"/>
<stop offset="0.222222" style="stop-color:rgb(0%,0%,0%);stop-opacity:0.27451;"/>
<stop offset="1" style="stop-color:rgb(0%,0%,0%);stop-opacity:0;"/>
</radialGradient>
<radialGradient id="radial3" gradientUnits="userSpaceOnUse" cx="450.908936" cy="189.579361" fx="450.908936" fy="189.579361" r="21.166656" gradientTransform="matrix(-0.00000017417,0.0781325,0.140638,0.000000101539,-19.933022,-7.52748)">
<stop offset="0" style="stop-color:rgb(0%,0%,0%);stop-opacity:0.313726;"/>
<stop offset="0.222222" style="stop-color:rgb(0%,0%,0%);stop-opacity:0.27451;"/>
<stop offset="1" style="stop-color:rgb(0%,0%,0%);stop-opacity:0;"/>
</radialGradient>
<linearGradient id="linear0" gradientUnits="userSpaceOnUse" x1="255.323059" y1="233.5" x2="255.323044" y2="254.666656" gradientTransform="matrix(-0.0133601,0,0,0.062506,13.943924,13.438786)">
<stop offset="0" style="stop-color:rgb(0%,0%,0%);stop-opacity:0.27451;"/>
<stop offset="1" style="stop-color:rgb(0%,0%,0%);stop-opacity:0;"/>
</linearGradient>
<linearGradient id="linear1" gradientUnits="userSpaceOnUse" x1="192.736588" y1="165.093643" x2="477.111359" y2="-145.133408" gradientTransform="matrix(-0.0441984,-0.0441984,-0.0405152,0.0405152,27.890189,29.863773)">
<stop offset="0" style="stop-color:rgb(25.882354%,25.882354%,25.882354%);stop-opacity:1;"/>
<stop offset="1" style="stop-color:rgb(38.039216%,38.039216%,38.039216%);stop-opacity:1;"/>
</linearGradient>
<linearGradient id="linear2" gradientUnits="userSpaceOnUse" x1="257.64035" y1="224.72374" x2="354.926453" y2="127.43763" gradientTransform="matrix(-0.0441984,-0.0441984,-0.0441984,0.0441984,28.048764,29.488788)">
<stop offset="0" style="stop-color:rgb(36.078432%,41.960785%,75.294119%);stop-opacity:1;"/>
<stop offset="1" style="stop-color:rgb(47.450981%,52.549022%,79.607844%);stop-opacity:1;"/>
</linearGradient>
</defs>
<g id="surface1">
<path style=" stroke:none;fill-rule:nonzero;fill:rgb(0.784314%,0.784314%,0.784314%);fill-opacity:0.588235;" d="M 18.523438 6.867188 C 17.277344 5.621094 14.816406 6.078125 13 7.894531 C 11.675781 9.21875 10.820312 10.71875 10.558594 12 L 13.5625 15 C 13.566406 15.003906 13.570312 15.007812 13.574219 15.011719 C 14.851562 14.75 16.355469 13.894531 17.679688 12.570312 C 19.492188 10.757812 19.953125 8.292969 18.707031 7.050781 Z M 18.523438 6.867188 "/>
<path style=" stroke:none;fill-rule:nonzero;fill:rgb(0.784314%,0.784314%,0.784314%);fill-opacity:0.588235;" d="M 9.726562 13.039062 L 9.386719 13.378906 C 9.457031 14.847656 9.871094 16.226562 10.546875 17.4375 C 10.851562 17.382812 11.136719 17.242188 11.363281 17.015625 L 12.535156 15.84375 Z M 9.726562 13.039062 "/>
<path style=" stroke:none;fill-rule:nonzero;fill:rgb(0.784314%,0.784314%,0.784314%);fill-opacity:0.588235;" d="M 25.421875 6.597656 C 24.785156 6.890625 24.152344 7.324219 23.585938 7.894531 C 22.261719 9.21875 21.40625 10.71875 21.144531 12 L 24.144531 15 C 24.148438 15.003906 24.152344 15.007812 24.15625 15.011719 C 25.320312 14.773438 26.667969 14.046875 27.898438 12.921875 C 27.898438 12.917969 27.898438 12.914062 27.898438 12.914062 C 27.898438 10.46875 26.960938 8.25 25.421875 6.597656 Z M 25.421875 6.597656 "/>
<path style=" stroke:none;fill-rule:nonzero;fill:rgb(0.784314%,0.784314%,0.784314%);fill-opacity:0.588235;" d="M 20.3125 13.039062 L 19.140625 14.207031 C 18.496094 14.855469 18.558594 15.964844 19.289062 16.695312 L 19.464844 16.867188 C 20.191406 17.597656 21.300781 17.664062 21.949219 17.015625 L 23.117188 15.84375 Z M 20.3125 13.039062 "/>
<path style=" stroke:none;fill-rule:nonzero;fill:rgb(77.254903%,79.215688%,91.37255%);fill-opacity:0.392157;" d="M 18.636719 3.652344 C 13.519531 3.652344 9.375 7.796875 9.375 12.914062 C 9.375 18.027344 13.519531 22.171875 18.636719 22.171875 C 23.75 22.171875 27.898438 18.027344 27.898438 12.914062 C 27.898438 7.796875 23.75 3.652344 18.636719 3.652344 Z M 18.636719 3.652344 "/>
<path style=" stroke:none;fill-rule:nonzero;fill:url(#radial0);" d="M 6.398438 28.035156 L 3.753906 28.035156 L 3.753906 26.710938 L 6.398438 26.710938 Z M 6.398438 28.035156 "/>
<path style=" stroke:none;fill-rule:nonzero;fill:url(#radial1);" d="M 6.730469 28.035156 L 9.375 28.035156 L 9.375 29.355469 L 6.730469 29.355469 Z M 6.730469 28.035156 "/>
<path style=" stroke:none;fill-rule:nonzero;fill:url(#radial2);" d="M 6.730469 28.035156 L 9.375 28.035156 L 9.375 26.710938 L 6.730469 26.710938 Z M 6.730469 28.035156 "/>
<path style=" stroke:none;fill-rule:nonzero;fill:url(#radial3);" d="M 6.398438 28.035156 L 3.753906 28.035156 L 3.753906 29.355469 L 6.398438 29.355469 Z M 6.398438 28.035156 "/>
<path style=" stroke:none;fill-rule:nonzero;fill:url(#linear0);" d="M 6.730469 28.035156 L 6.398438 28.035156 L 6.398438 29.355469 L 6.730469 29.355469 Z M 6.730469 28.035156 "/>
<path style=" stroke:none;fill-rule:nonzero;fill:url(#linear1);" d="M 18.636719 2.894531 C 24.132812 2.894531 28.558594 7.320312 28.558594 12.820312 C 28.558594 18.316406 24.132812 22.742188 18.636719 22.742188 C 16.335938 22.742188 14.226562 21.96875 12.546875 20.664062 L 11.179688 22.035156 L 9.308594 20.164062 L 10.691406 18.78125 C 9.449219 17.121094 8.714844 15.058594 8.714844 12.820312 C 8.714844 7.320312 13.140625 2.894531 18.636719 2.894531 Z M 18.628906 4.878906 C 14.226562 4.878906 10.679688 8.421875 10.679688 12.820312 C 10.679688 17.214844 14.226562 20.757812 18.628906 20.757812 C 23.03125 20.757812 26.574219 17.214844 26.574219 12.820312 C 26.574219 8.421875 23.03125 4.878906 18.628906 4.878906 Z M 18.628906 4.878906 "/>
<path style=" stroke:none;fill-rule:nonzero;fill:url(#linear2);" d="M 11.179688 22.035156 L 9.308594 20.164062 C 8.792969 19.644531 7.953125 19.644531 7.4375 20.164062 L 3.695312 23.90625 C 3.179688 24.421875 3.179688 25.257812 3.695312 25.777344 L 5.566406 27.648438 C 6.082031 28.164062 6.921875 28.164062 7.4375 27.648438 L 11.179688 23.90625 C 11.695312 23.386719 11.695312 22.550781 11.179688 22.035156 Z M 11.179688 22.035156 "/>
<path style=" stroke:none;fill-rule:nonzero;fill:rgb(100%,100%,100%);fill-opacity:0.392157;" d="M 18.636719 2.894531 C 24.132812 2.894531 28.558594 7.320312 28.558594 12.820312 C 28.558594 12.875 28.558594 12.929688 28.558594 12.984375 C 28.46875 7.5625 24.078125 3.226562 18.636719 3.226562 C 13.195312 3.226562 8.800781 7.566406 8.714844 12.984375 C 8.714844 12.929688 8.714844 12.875 8.714844 12.820312 C 8.714844 7.320312 13.140625 2.894531 18.636719 2.894531 Z M 26.574219 12.984375 C 26.574219 13.039062 26.574219 13.09375 26.574219 13.148438 C 26.574219 17.546875 23.03125 21.089844 18.628906 21.089844 C 14.226562 21.089844 10.679688 17.546875 10.679688 13.148438 C 10.679688 13.09375 10.679688 13.039062 10.683594 12.984375 C 10.769531 17.304688 14.28125 20.757812 18.628906 20.757812 C 22.976562 20.757812 26.484375 17.304688 26.574219 12.984375 Z M 10.550781 18.917969 C 10.597656 18.984375 10.644531 19.046875 10.691406 19.109375 L 9.472656 20.328125 L 9.308594 20.164062 Z M 10.550781 18.917969 "/>
<path style=" stroke:none;fill-rule:nonzero;fill:rgb(0%,0%,0%);fill-opacity:0.235294;" d="M 18.628906 4.640625 C 23.03125 4.640625 26.574219 8.183594 26.574219 12.578125 C 26.574219 12.621094 26.574219 12.660156 26.574219 12.699219 C 26.511719 8.355469 22.992188 4.878906 18.628906 4.878906 C 14.265625 4.878906 10.746094 8.355469 10.683594 12.699219 C 10.679688 12.660156 10.679688 12.621094 10.679688 12.578125 C 10.679688 8.183594 14.226562 4.640625 18.628906 4.640625 Z M 8.714844 12.699219 C 8.738281 14.894531 9.472656 16.910156 10.691406 18.539062 L 10.589844 18.640625 C 9.410156 17.007812 8.714844 14.996094 8.714844 12.820312 C 8.714844 12.777344 8.714844 12.738281 8.714844 12.699219 Z M 28.558594 12.699219 C 28.558594 12.738281 28.558594 12.777344 28.558594 12.820312 C 28.558594 18.316406 24.132812 22.742188 18.636719 22.742188 C 16.335938 22.742188 14.226562 21.96875 12.546875 20.664062 L 11.179688 22.035156 L 9.308594 20.164062 L 9.429688 20.042969 L 11.179688 21.792969 L 12.546875 20.425781 C 14.226562 21.730469 16.335938 22.503906 18.636719 22.503906 C 24.09375 22.503906 28.496094 18.140625 28.558594 12.699219 Z M 28.558594 12.699219 "/>
<path style=" stroke:none;fill-rule:nonzero;fill:rgb(12.941177%,12.941177%,12.941177%);fill-opacity:1;" d="M 18.636719 2.800781 C 24.183594 2.800781 28.652344 7.269531 28.652344 12.820312 C 28.652344 18.367188 24.183594 22.835938 18.636719 22.835938 C 16.347656 22.835938 14.242188 22.070312 12.558594 20.789062 L 11.308594 22.035156 C 11.289062 22.011719 11.269531 21.988281 11.246094 21.96875 L 11.179688 21.902344 L 12.480469 20.597656 C 12.515625 20.566406 12.566406 20.5625 12.605469 20.589844 C 14.269531 21.882812 16.359375 22.648438 18.636719 22.648438 C 24.082031 22.648438 28.464844 18.265625 28.464844 12.820312 C 28.464844 7.371094 24.082031 2.988281 18.636719 2.988281 C 13.191406 2.988281 8.808594 7.371094 8.808594 12.820312 C 8.808594 15.039062 9.535156 17.082031 10.765625 18.722656 C 10.796875 18.761719 10.792969 18.8125 10.757812 18.847656 L 9.441406 20.164062 L 9.375 20.097656 C 9.351562 20.074219 9.328125 20.054688 9.304688 20.03125 L 10.570312 18.769531 C 9.34375 17.105469 8.621094 15.050781 8.621094 12.820312 C 8.621094 7.269531 13.089844 2.800781 18.636719 2.800781 Z M 18.628906 4.785156 C 23.082031 4.785156 26.667969 8.371094 26.667969 12.820312 C 26.667969 17.265625 23.082031 20.851562 18.628906 20.851562 C 14.175781 20.851562 10.585938 17.265625 10.585938 12.820312 C 10.585938 8.371094 14.175781 4.785156 18.628906 4.785156 Z M 18.628906 4.972656 C 14.273438 4.972656 10.773438 8.472656 10.773438 12.820312 C 10.773438 17.167969 14.273438 20.664062 18.628906 20.664062 C 22.980469 20.664062 26.480469 17.167969 26.480469 12.820312 C 26.480469 8.472656 22.980469 4.972656 18.628906 4.972656 Z M 18.628906 4.972656 "/>
<path style=" stroke:none;fill-rule:nonzero;fill:rgb(100%,100%,100%);fill-opacity:0.392157;" d="M 8.375 19.773438 C 8.710938 19.773438 9.050781 19.902344 9.308594 20.164062 L 11.179688 22.035156 C 11.476562 22.332031 11.601562 22.730469 11.558594 23.113281 C 11.527344 22.824219 11.402344 22.546875 11.179688 22.324219 L 9.308594 20.453125 C 8.789062 19.933594 7.957031 19.933594 7.4375 20.453125 L 3.695312 24.195312 C 3.472656 24.417969 3.347656 24.695312 3.316406 24.984375 C 3.273438 24.601562 3.398438 24.203125 3.695312 23.90625 L 7.4375 20.164062 C 7.695312 19.902344 8.035156 19.773438 8.375 19.773438 Z M 8.375 19.773438 "/>
<path style=" stroke:none;fill-rule:nonzero;fill:rgb(0%,0%,0%);fill-opacity:0.235294;" d="M 6.503906 28.066406 C 6.164062 28.066406 5.824219 27.9375 5.566406 27.675781 L 3.695312 25.804688 C 3.398438 25.511719 3.273438 25.109375 3.316406 24.726562 C 3.347656 25.015625 3.472656 25.296875 3.695312 25.515625 L 5.566406 27.386719 C 6.085938 27.90625 6.917969 27.90625 7.4375 27.386719 L 11.179688 23.644531 C 11.402344 23.425781 11.527344 23.144531 11.558594 22.855469 C 11.601562 23.238281 11.476562 23.640625 11.179688 23.933594 L 7.4375 27.675781 C 7.179688 27.9375 6.839844 28.066406 6.503906 28.066406 Z M 6.503906 28.066406 "/>
<path style=" stroke:none;fill-rule:nonzero;fill:rgb(12.941177%,12.941177%,12.941177%);fill-opacity:1;" d="M 11.246094 21.96875 C 11.800781 22.523438 11.800781 23.417969 11.246094 23.972656 L 7.503906 27.714844 C 6.949219 28.265625 6.054688 28.265625 5.5 27.714844 L 3.628906 25.84375 C 3.074219 25.289062 3.074219 24.394531 3.628906 23.839844 L 7.371094 20.097656 C 7.925781 19.542969 8.820312 19.542969 9.375 20.097656 Z M 11.113281 22.101562 L 9.242188 20.230469 C 8.757812 19.746094 7.988281 19.746094 7.503906 20.230469 L 3.761719 23.972656 C 3.277344 24.453125 3.277344 25.226562 3.761719 25.710938 L 5.632812 27.582031 C 6.117188 28.0625 6.886719 28.0625 7.371094 27.582031 L 11.113281 23.839844 C 11.597656 23.355469 11.597656 22.582031 11.113281 22.101562 Z M 11.113281 22.101562 "/>
<path style=" stroke:none;fill-rule:nonzero;fill:rgb(96.078432%,96.078432%,96.078432%);fill-opacity:0.392157;" d="M 23.816406 10.171875 C 23.816406 10.203125 23.816406 10.234375 23.816406 10.265625 C 23.816406 14.296875 20.570312 17.542969 16.539062 17.542969 C 15.800781 17.542969 15.089844 17.433594 14.417969 17.230469 C 15.484375 18.246094 16.929688 18.867188 18.523438 18.867188 C 21.820312 18.867188 24.476562 16.210938 24.476562 12.914062 C 24.476562 11.921875 24.238281 10.992188 23.816406 10.171875 Z M 23.816406 10.171875 "/>
</g>
</svg>
